philips-hue/philips-hue-white-and-color.svg

<?xml version="1.0" encoding="UTF-8" standalone="no"?>
<svg
   xmlns:dc="http://purl.org/dc/elements/1.1/"
   xmlns:cc="http://creativecommons.org/ns#"
   xmlns:rdf="http://www.w3.org/1999/02/22-rdf-syntax-ns#"
   xmlns:svg="http://www.w3.org/2000/svg"
   xmlns="http://www.w3.org/2000/svg"
   xmlns:sodipodi="http://sodipodi.sourceforge.net/DTD/sodipodi-0.dtd"
   xmlns:inkscape="http://www.inkscape.org/namespaces/inkscape"
   version="1.1"
   width="24"
   height="24"
   viewBox="0 0 24.00 24.00"
   enable-background="new 0 0 24.00 24.00"
   xml:space="preserve"
   id="svg4697"
   sodipodi:docname="philips-hue-white-and-color.svg"
   inkscape:version="0.92.1 r15371"><metadata
     id="metadata4703"><rdf:RDF><cc:Work
         rdf:about=""><dc:format>image/svg+xml</dc:format><dc:type
           rdf:resource="http://purl.org/dc/dcmitype/StillImage" /><dc:title /></cc:Work></rdf:RDF></metadata><defs
     id="defs4701" /><sodipodi:namedview
     pagecolor="#ffffff"
     bordercolor="#666666"
     borderopacity="1"
     objecttolerance="10"
     gridtolerance="10"
     guidetolerance="10"
     inkscape:pageopacity="0"
     inkscape:pageshadow="2"
     inkscape:window-width="1435"
     inkscape:window-height="976"
     id="namedview4699"
     showgrid="true"
     inkscape:zoom="19.666667"
     inkscape:cx="8.0447133"
     inkscape:cy="12.059848"
     inkscape:window-x="212"
     inkscape:window-y="179"
     inkscape:window-maximized="0"
     inkscape:current-layer="svg4697"
     showguides="true"
     inkscape:guide-bbox="true"><inkscape:grid
       type="xygrid"
       id="grid4705" /><sodipodi:guide
       position="12,12"
       orientation="1,0"
       id="guide4926"
       inkscape:locked="false" /></sodipodi:namedview><g
     id="g4913"
     transform="matrix(0.83723074,0,0,0.8346142,1.9584678,1.9547449)"><path
       style="stroke-width:0.7514047"
       d="m 11.990234,2.9960938 c -1.313255,7.502e-4 -3.3669519,0.1838926 -4.6425778,0.9941406 -1.185316,0.7524803 0.088373,2.9994212 0.6445313,4.1757812 0.012041,0.027008 0.023867,0.053367 0.035156,0.078125 1.3358323,0.4688935 6.0011435,0.6345426 8.0000005,-0.1171875 0.0068,-0.013504 0.01276,-0.026761 0.01953,-0.041016 0.572715,-1.195866 1.76715,-3.3597279 0.607422,-4.0957031 -1.276378,-0.8094974 -3.32977,-0.99339 -4.64453,-0.9941402 z m 3.736328,6.0097656 c -1.268852,0.3316015 -2.904976,0.3886719 -3.845703,0.3886718 -1.41109,0 -2.7370071,-0.1175827 -3.5957028,-0.3066406 C 9.0129027,11.761709 9.7304688,16.5 9.7304688,16.5 c 0,0 0.1041057,0.75 0.7656252,0.75 h 3.009765 c 0,0 0.55596,-0.0415 0.763672,-0.761719 0,0 0.718749,-4.804852 1.457031,-7.4824216 z M 10.496094,18 v 1.5 c 0,0 -0.03206,0.75 0.736328,0.75 0,0 0.0021,0.753906 0.753906,0.753906 h 0.02539 c 0.751829,0 0.75,-0.753906 0.75,-0.753906 0.767633,0 0.74414,-0.75 0.74414,-0.75 V 18 Z"
       transform="matrix(1.3287595,0,0,1.3329252,-3.9459837,-3.9926541)"
       id="path4907"
       inkscape:connector-curvature="0" /></g></svg>

<?xml version="1.0" encoding="UTF-8" standalone="no"?>
<svg
   xmlns:dc="http://purl.org/dc/elements/1.1/"
   xmlns:cc="http://creativecommons.org/ns#"
   xmlns:rdf="http://www.w3.org/1999/02/22-rdf-syntax-ns#"
   xmlns:svg="http://www.w3.org/2000/svg"
   xmlns="http://www.w3.org/2000/svg"
   xmlns:sodipodi="http://sodipodi.sourceforge.net/DTD/sodipodi-0.dtd"
   xmlns:inkscape="http://www.inkscape.org/namespaces/inkscape"
   version="1.1"
   width="24"
   height="24"
   viewBox="0 0 24.00 24.00"
   enable-background="new 0 0 24.00 24.00"
   xml:space="preserve"
   id="svg4697"
   sodipodi:docname="philips-hue-white-and-color.svg"
   inkscape:version="0.92.1 r15371"><metadata
     id="metadata4703"><rdf:RDF><cc:Work
         rdf:about=""><dc:format>image/svg+xml</dc:format><dc:type
           rdf:resource="http://purl.org/dc/dcmitype/StillImage" /><dc:title /></cc:Work></rdf:RDF></metadata><defs
     id="defs4701" /><sodipodi:namedview
     pagecolor="#ffffff"
     bordercolor="#666666"
     borderopacity="1"
     objecttolerance="10"
     gridtolerance="10"
     guidetolerance="10"
     inkscape:pageopacity="0"
     inkscape:pageshadow="2"
     inkscape:window-width="1435"
     inkscape:window-height="976"
     id="namedview4699"
     showgrid="true"
     inkscape:zoom="19.666667"
     inkscape:cx="12.320156"
     inkscape:cy="10.741848"
     inkscape:window-x="212"
     inkscape:window-y="179"
     inkscape:window-maximized="0"
     inkscape:current-layer="svg4697"
     showguides="true"
     inkscape:guide-bbox="true"><inkscape:grid
       type="xygrid"
       id="grid4705" /><sodipodi:guide
       position="12,12"
       orientation="1,0"
       id="guide4926"
       inkscape:locked="false" /></sodipodi:namedview><g
     id="g4913"
     transform="matrix(0.75258162,0,0,0.75022963,2.9696748,2.9954074)"><path
       style="stroke-width:0.7514047"
       d="M 11.990234 2.9960938 C 10.676979 2.996844 8.6232821 3.1799864 7.3476562 3.9902344 C 6.1623402 4.7427147 7.4360297 6.9896556 7.9921875 8.1660156 C 8.0042288 8.1930239 8.016055 8.219383 8.0273438 8.2441406 C 9.3631761 8.7130341 14.028487 8.8786832 16.027344 8.1269531 C 16.034117 8.113449 16.040102 8.1001919 16.046875 8.0859375 C 16.61959 6.8900715 17.814025 4.7262096 16.654297 3.9902344 C 15.377918 3.1807366 13.324526 2.996844 12.009766 2.9960938 L 11.990234 2.9960938 z M 15.726562 9.0058594 C 14.45771 9.3374609 12.821586 9.3945313 11.880859 9.3945312 C 10.469769 9.3945312 9.1438519 9.2769485 8.2851562 9.0878906 C 9.0129027 11.761709 9.7304688 16.5 9.7304688 16.5 C 9.7304688 16.5 9.8345745 17.25 10.496094 17.25 L 13.505859 17.25 C 13.505859 17.25 14.061819 17.208502 14.269531 16.488281 C 14.269531 16.488281 14.98828 11.683429 15.726562 9.0058594 z M 10.496094 18 L 10.496094 19.5 C 10.496094 19.5 10.464036 20.25 11.232422 20.25 C 11.232422 20.25 11.234499 21.003906 11.986328 21.003906 L 12.011719 21.003906 C 12.763548 21.003906 12.761719 20.25 12.761719 20.25 C 13.529352 20.25 13.505859 19.5 13.505859 19.5 L 13.505859 18 L 10.496094 18 z "
       transform="matrix(1.3287595,0,0,1.3329252,-3.9459837,-3.9926541)"
       id="path4907" /></g></svg>
